material/.icons/material/glass-wine.svg

<svg xmlns="http://www.w3.org/2000/svg" viewBox="0 0 24 24"><path d="M15.5 21.27l-.84-.09c-.76-.07-1.41-.58-1.66-1.31a11.52 11.52 0 010-6c2.32-.47 4-2.5 4-4.87 0-2-2-7-2-7H9S7 7 7 9a5 5 0 004 4.9c.53 1.96.53 4.04 0 6-.24.72-.88 1.23-1.63 1.31l-.87.09s-.5-.02-.5.7h8c0-.72-.5-.73-.5-.73M9.44 7l1-3h3.12l1 3H9.44z"/></svg>

<?xml version="1.0" encoding="UTF-8"?><!DOCTYPE svg PUBLIC "-//W3C//DTD SVG 1.1//EN" "http://www.w3.org/Graphics/SVG/1.1/DTD/svg11.dtd"><svg xmlns="http://www.w3.org/2000/svg" xmlns:xlink="http://www.w3.org/1999/xlink" version="1.1" id="mdi-glass-wine" width="24" height="24" viewBox="0 0 24 24"><path d="M15.5,21.27L14.66,21.18C13.9,21.11 13.25,20.6 13,19.87C12.47,17.91 12.47,15.83 13,13.87C15.32,13.4 17,11.37 17,9C17,7 15,2 15,2H9C9,2 7,7 7,9C7,11.38 8.67,13.42 11,13.9C11.53,15.86 11.53,17.94 11,19.9C10.76,20.62 10.12,21.13 9.37,21.21L8.5,21.3C8.5,21.3 8,21.28 8,22H16C16,21.28 15.5,21.27 15.5,21.27M9.44,7L10.44,4H13.56L14.56,7H9.44Z" /></svg>
